icons/tokens/0x5D8d9F5b96f4438195BE9b99eee6118Ed4304286/logo.svg

<svg width="32" height="32" viewBox="0 0 32 32" fill="none" xmlns="http://www.w3.org/2000/svg">
<path fill-rule="evenodd" clip-rule="evenodd" d="M32 16C32 13.9059 31.5834 11.8118 30.7821 9.87712C29.9808 7.9424 28.7946 6.16704 27.3136 4.6864C25.833 3.20544 24.0576 2.0192 22.1229 1.21792C20.1882 0.41664 18.0941 0 16 0C13.9059 0 11.8118 0.41664 9.87712 1.21792C7.9424 2.0192 6.16704 3.20544 4.6864 4.6864C3.20544 6.16704 2.0192 7.9424 1.21792 9.87712C0.41664 11.8118 0 13.9059 0 16C0 18.0941 0.41664 20.1882 1.21792 22.1229C2.0192 24.0576 3.20544 25.833 4.6864 27.3136C6.16704 28.7946 7.9424 29.9808 9.87712 30.7821C11.8118 31.5834 13.9059 32 16 32C18.0941 32 20.1882 31.5834 22.1229 30.7821C24.0576 29.9808 25.833 28.7946 27.3136 27.3136C28.7946 25.833 29.9808 24.0576 30.7821 22.1229C31.5834 20.1882 32 18.0941 32 16Z" fill="#EEEEEE"/>
<path fill-rule="evenodd" clip-rule="evenodd" d="M10.1789 26.2304C10.1517 26.2019 10.1235 26.1661 10.0941 26.1235C10.0355 26.0387 10.0573 25.9882 10.1594 25.9722C10.2103 25.9645 10.2554 25.9603 10.2947 25.9603H13.7981C13.881 25.9603 13.968 25.9523 14.0595 25.9363C14.2426 25.9046 14.3501 25.7971 14.3821 25.6138C14.3981 25.5222 14.4061 25.4352 14.4061 25.3523V25.2883C14.4061 25.2058 14.3981 25.1184 14.3821 25.0269C14.3501 24.8438 14.2426 24.7363 14.0595 24.7043C13.968 24.6883 13.881 24.6803 13.7981 24.6803H9.22275C9.17059 24.6803 9.11683 24.6787 9.06179 24.6755C8.95171 24.6688 8.86243 24.6221 8.79395 24.5357C8.75971 24.4922 8.72739 24.4493 8.69763 24.4061C8.55427 24.2006 8.41571 23.9917 8.28163 23.7795C8.01315 23.3552 7.76291 22.921 7.53059 22.4762C7.41443 22.2538 7.30275 22.0291 7.19491 21.8029C7.17603 21.7632 7.15811 21.7174 7.14051 21.6659C7.10531 21.5626 7.14211 21.5046 7.25027 21.4922C7.30435 21.4858 7.35363 21.4826 7.39747 21.4826H12.2042C12.2871 21.4826 12.3741 21.4746 12.4656 21.4586C12.6487 21.4269 12.7562 21.3194 12.7882 21.136C12.8042 21.0445 12.8122 20.9574 12.8122 20.8746V20.8106C12.8122 20.728 12.8042 20.6406 12.7882 20.5491C12.7562 20.3661 12.6487 20.2586 12.4656 20.2266C12.3741 20.2106 12.2871 20.2026 12.2042 20.2026H6.84963C6.79907 20.2026 6.74595 20.2006 6.69091 20.1965C6.58083 20.1885 6.50307 20.1338 6.45795 20.033C6.43523 19.9824 6.41539 19.9334 6.39811 19.8858C6.32259 19.6758 6.24963 19.4646 6.18019 19.2528C6.04067 18.8285 5.91299 18.401 5.79651 17.9699C5.73827 17.7546 5.68291 17.5382 5.63043 17.3213C5.62019 17.2797 5.61155 17.2333 5.60483 17.1821C5.59107 17.08 5.63523 17.0237 5.73763 17.0131C5.78883 17.0077 5.83587 17.0048 5.87907 17.0048H15.392C15.4749 17.0048 15.5619 16.9968 15.6535 16.9811C15.8365 16.9491 15.944 16.8416 15.976 16.6582C15.992 16.5667 16 16.4797 16 16.3968V16.3328C16 16.2502 15.992 16.1632 15.976 16.0714C15.944 15.8883 15.8365 15.7808 15.6535 15.7488C15.5619 15.7328 15.4749 15.7248 15.392 15.7248H5.55939C5.52035 15.7248 5.47875 15.7232 5.43491 15.7197C5.34755 15.7123 5.29283 15.6662 5.27075 15.5814C5.25987 15.5389 5.25091 15.4982 5.24419 15.4595C5.20707 15.2458 5.17219 15.0314 5.13987 14.8166C5.07491 14.3869 5.01859 13.9562 4.97091 13.5245C4.94691 13.3085 4.92515 13.0925 4.90563 12.8762C4.90115 12.8282 4.89923 12.7763 4.89955 12.72C4.90019 12.6077 4.95651 12.5462 5.06819 12.5354C5.12419 12.5299 5.17603 12.5274 5.22435 12.5274H12.2042C12.2871 12.5274 12.3741 12.5194 12.4656 12.5034C12.6487 12.4714 12.7562 12.3638 12.7882 12.1808C12.8042 12.089 12.8122 12.0019 12.8122 11.9194V11.8554C12.8122 11.7725 12.8042 11.6854 12.7882 11.5939C12.7562 11.4106 12.6487 11.303 12.4656 11.271C12.3741 11.255 12.2871 11.2474 12.2042 11.2474H5.10179C5.05827 11.2474 5.01155 11.2451 4.96195 11.2406C4.86275 11.2317 4.80675 11.1776 4.79395 11.0787C4.78787 11.0294 4.78371 10.9827 4.78211 10.9392C4.77219 10.6726 4.76515 10.4061 4.76067 10.1392C4.75203 9.60576 4.75363 9.07232 4.76611 8.53888C4.77219 8.27232 4.78051 8.00576 4.79171 7.7392C4.79491 7.66048 4.80227 7.57728 4.81347 7.48896C4.83555 7.31264 4.93475 7.21152 5.11043 7.18496C5.19811 7.17184 5.28131 7.16288 5.35971 7.15776C6.21891 7.10176 7.07523 7.00448 7.92899 6.86592C9.63651 6.58816 11.3015 6.15008 12.9242 5.55072C13.7357 5.2512 14.529 4.91424 15.304 4.53984C15.4141 4.48672 15.5283 4.43488 15.6461 4.38432C15.8819 4.28352 16.1181 4.28352 16.3539 4.38432C16.4717 4.43488 16.5859 4.48672 16.696 4.53984C17.4711 4.91424 18.2643 5.2512 19.0759 5.55072C20.6986 6.15008 22.3635 6.58816 24.0711 6.86592C24.9248 7.00448 25.7812 7.10176 26.6404 7.15776C26.7188 7.16288 26.8019 7.17184 26.8896 7.18496C27.0653 7.21152 27.1645 7.31264 27.1866 7.48896C27.1978 7.57728 27.2051 7.66048 27.2083 7.7392C27.3575 11.3424 27.0775 15.0224 26.0471 18.5178C25.2234 21.3126 23.92 23.9891 21.9344 26.1098C20.4467 27.6986 18.576 28.975 16.5437 29.7094C16.456 29.7408 16.3664 29.7706 16.2749 29.7978C16.0915 29.8525 15.9085 29.8525 15.7251 29.7978C15.6336 29.7706 15.544 29.7408 15.4563 29.7094C14.9578 29.529 14.4695 29.319 13.9923 29.0794C13.0375 28.6 12.1527 28.0154 11.3373 27.3254C10.9299 26.9805 10.5437 26.6154 10.1789 26.2304Z" fill="#272727"/>
</svg>

<svg fill="none" viewBox="0 0 32 32"><path fill="#EEE" fill-rule="evenodd" d="M32 16c0-2.094-.417-4.188-1.218-6.123a16.046 16.046 0 00-3.468-5.19 16.046 16.046 0 00-5.191-3.47A16.055 16.055 0 0016 0c-2.094 0-4.188.417-6.123 1.218a16.047 16.047 0 00-5.19 3.468 16.047 16.047 0 00-3.47 5.191A16.054 16.054 0 000 16c0 2.094.417 4.188 1.218 6.123a16.046 16.046 0 003.468 5.19 16.046 16.046 0 005.191 3.47A16.054 16.054 0 0016 32c2.094 0 4.188-.417 6.123-1.218a16.046 16.046 0 005.19-3.468 16.046 16.046 0 003.47-5.191A16.054 16.054 0 0032 16z" clip-rule="evenodd"/><path fill="#272727" fill-rule="evenodd" d="M10.179 26.23a.879.879 0 01-.085-.107c-.058-.084-.037-.135.065-.15a.921.921 0 01.136-.013h3.503c.083 0 .17-.008.261-.024a.364.364 0 00.323-.322 1.52 1.52 0 00.024-.262v-.064c0-.082-.008-.17-.024-.261a.365.365 0 00-.322-.323 1.518 1.518 0 00-.262-.024H9.223c-.052 0-.106-.001-.161-.005a.355.355 0 01-.268-.14 2.544 2.544 0 01-.096-.129 18.153 18.153 0 01-1.503-2.603 1.304 1.304 0 01-.054-.137c-.036-.103.001-.161.11-.174.053-.006.103-.01.146-.01h4.807c.083 0 .17-.007.262-.023a.364.364 0 00.322-.323c.016-.091.024-.179.024-.261v-.064c0-.083-.008-.17-.024-.262a.365.365 0 00-.322-.322 1.518 1.518 0 00-.262-.024H6.85c-.05 0-.104-.002-.16-.006a.26.26 0 01-.232-.164 1.9 1.9 0 01-.06-.147 23.584 23.584 0 01-.601-1.916 25.001 25.001 0 01-.167-.649 1.283 1.283 0 01-.025-.139c-.014-.102.03-.158.133-.169.05-.005.098-.008.141-.008h9.513c.083 0 .17-.008.261-.024a.365.365 0 00.323-.323c.016-.091.024-.178.024-.261v-.064c0-.083-.008-.17-.024-.262a.365.365 0 00-.323-.322 1.52 1.52 0 00-.261-.024H5.559c-.039 0-.08-.002-.124-.005a.17.17 0 01-.164-.139 1.593 1.593 0 01-.027-.121 32.546 32.546 0 01-.339-2.583 1.59 1.59 0 01-.005-.157c0-.112.057-.174.168-.185.056-.005.108-.008.156-.008h6.98c.083 0 .17-.008.262-.024a.365.365 0 00.322-.322c.016-.092.024-.18.024-.262v-.064c0-.082-.008-.17-.024-.261a.365.365 0 00-.322-.323 1.516 1.516 0 00-.262-.024H5.102a1.75 1.75 0 01-.14-.006c-.1-.01-.155-.063-.168-.162a1.643 1.643 0 01-.012-.14 39.201 39.201 0 01-.016-2.4c.006-.267.015-.533.026-.8.003-.079.01-.162.021-.25.023-.176.122-.277.297-.304.088-.013.171-.022.25-.027a26.803 26.803 0 009.944-2.618c.11-.053.224-.105.342-.156.236-.1.472-.1.708 0 .118.05.232.103.342.156a26.802 26.802 0 009.944 2.618c.079.005.162.014.25.027.175.027.274.128.297.304.01.088.018.171.021.25.15 3.603-.13 7.283-1.16 10.779-.825 2.795-2.128 5.471-4.114 7.592-1.487 1.589-3.358 2.865-5.39 3.6a5.156 5.156 0 01-.27.088.942.942 0 01-.549 0 5.156 5.156 0 01-.269-.089 13.495 13.495 0 01-4.119-2.384c-.407-.345-.793-.71-1.158-1.095z" clip-rule="evenodd"/></svg>
